!!!COM: Palestrina, Giovanni Perluigi da
!!!OPR: Missa Alma Redemptoris mater
!!!OMD: Credo
!!!OTL: Et iterum
**kern	**kern	**kern	**kern
*Ibass	*Itenor	*Icalto	*Icalto
!Bassus	!Tenor	!Altus 2	!Altus 1
*clefF4	*clefGv2	*clefG2	*clefG2
*k[b-]	*k[b-]	*k[b-]	*k[b-]
*F:ion	*F:ion	*F:ion	*F:ion
*M4/2	*M4/2	*M4/2	*M4/2
=113	=113	=113	=113
0C	0c	0g	0e
=114	=114	=114	=114
1.F	1.c	1.a	1.f
2C	2c	2g	2e
=115	=115	=115	=115
1C	1c	2g	2e
.	.	2cc	2c
1r	1r	2b-	2d
.	.	2a	2f
=116	=116	=116	=116
1c	2r	1g	1e
.	2c	.	.
2B-	2d	1r	1f
2A	2f	.	.
=117	=117	=117	=117
1G	2e	1r	2g
.	2d	.	2b-
1F	2.f	2r	[1a
.	.	2a	.
.	4f	.	.
=118	=118	=118	=118
2.F	2f	2.cc	1a]
.	1f	.	.
4G	.	4cc	.
1A	.	2cc	2r
.	2e	[2cc	2a
=119	=119	=119	=119
0r	0d	2cc]	2.f
.	.	2b-	.
.	.	.	4f
.	.	[1a	2f
.	.	.	[2f
=120	=120	=120	=120
1A	1c	1a]	2f]
.	.	.	2e
2.B-	1r	1f	[1d
4B-	.	.	.
=121	=121	=121	=121
2B-	1r	2r	1d]
1B-	.	2f	.
.	2r	2g	1c
2A	2c	2a	.
=122	=122	=122	=122
1G	2d	2b-	1r
.	2e	2b-	.
1F	[1f	[1a	2r
.	.	.	2c
=123	=123	=123	=123
2r	2f]	2a]	2d
2C	2e	2g	2e
2D	2d	2f	2f
2E	4c	4e	2g
.	4B-	4d	.
=124	=124	=124	=124
2.F	2A	2c	[0a
.	2d	2f	.
4G	.	.	.
1A	2d	1e	.
.	2c	.	.
=125	=125	=125	=125
1D	2.f	2r	0a]
.	.	1d	.
.	4e	.	.
1r	2d	.	.
.	2c	2e	.
=126	=126	=126	=126
2r	2d	1f	2r
1F	2c	.	1a
.	2r	2d	.
2G	2g	2d	2b-
=127	=127	=127	=127
1A	2e	1c	1cc
.	2e	.	.
2F	2f	1c	2a
2A	2c	.	2cc
=128	=128	=128	=128
2G	2d	1r	2b-
2F	2f	.	2a
[1c	1e	2r	4g
.	.	.	4f
.	.	[2g	4e
.	.	.	4d
=129	=129	=129	=129
1c]	4c	2g]	1e
.	4d	.	.
.	4e	2a	.
.	4f	.	.
1G	1g	1b-	[1d
=130	=130	=130	=130
1G	2r	2g	1d]
.	1d	2b-	.
2F	.	2a	1r
2E	2e	2g	.
=131	=131	=131	=131
1D	1f	1.a	0d
1D	2d	.	.
.	2f	4g	.
.	.	4f	.
=132	=132	=132	=132
0r	2e	2g	2c
.	2d	2f	2d
.	1c#	1e	1A
=133	=133	=133	=133
2r	2d	2f#	2a
1D	1d	1f#	1a
2D	2d	2f#	2a
=134	=134	=134	=134
2.G	2.B	2.g	2.d
4G	4B	4g	4d
2C	2c	2e	2g
[2F	[2c	[2f	[2a
=135	=135	=135	=135
2F]	2c]	2f]	2a]
2C	2c	2e	2g
2D	2.A	2d	2f
2A	.	2c	2e
.	4A	.	.
=136	=136	=136	=136
1D	2A	2.d	1.f
.	1a	.	.
.	.	4c	.
[1d	.	1B-	.
.	2g	.	4e
.	.	.	4d
=137	=137	=137	=137
2d]	2f	1A	1a
2c	2e	.	.
2B-	4d	1r	1r
.	4e	.	.
2A	[2f	.	.
=138	=138	=138	=138
1G	2f]	1r	1r
.	2e	.	.
[1F	[1f	2r	2r
.	.	2a	2cc
=139	=139	=139	=139
1F]	1f]	2a	2cc
.	.	1f	1a
1r	1r	.	.
.	.	2e	2g
=140	=140	=140	=140
0r	1r	2.a	2.f
.	.	4a	4f
.	2r	2g	2e
.	2F	2f	2a
=141	=141	=141	=141
0r	2G	2e	2g
.	2B-	2.d	2.f
.	2A	.	.
.	.	4c	4e
.	2A	[2d	4e
.	.	.	8d
.	.	.	8c
=142	=142	=142	=142
1r	1G	2d]	1d
.	.	2B	.
2r	2c	2c	2e
[2C	[2c	[2e	[2g
=143	=143	=143	=143
2C]	2c]	2e]	2g]
2C	2c	2e	2g
1C	1c	1e	1g
=144	=144	=144	=144
2G	2B-	2d	2g
2A	2A	2c	2f
2B-	2G	2d	2g
2c	2c	2e	2g
=145	=145	=145	=145
1F	2c	1f	2a
.	1c	.	2.a
1F	.	2r	.
.	.	.	4g
.	2c	[2a	[2f
=146	=146	=146	=146
1C	1c	2a]	2f]
.	.	2g	2e
2D	1A	2f	2d
2F	.	2f	2c
=147	=147	=147	=147
0BB-	0B-	0f	0d
=148	=148	=148	=148
2C	2G	2e	2c
2F	2F	2a	2c
2F	2c	2a	2f
2C	2c	2g	2e
=149	=149	=149	=149
2D	2A	2f	2d
2F	2A	2f	2c
1BB-	1B-	1d	1f
=150	=150	=150	=150
2F	2A	2c	1f
1F	1a	1cc	.
.	.	.	1r
2G	2g	2b-	.
=151	=151	=151	=151
2A	2f	2a	1r
2B-	2d	2f	.
2G	2e	2g	2r
2F	2f	2a	[2cc
=152	=152	=152	=152
1G	2e	1g	2cc]
.	1d	.	2b-
1A	.	1e	[1a
.	2c#	.	.
=153	=153	=153	=153
1D	1d	1f	2a]
.	.	.	2f
2E	2c	2e	2g
2F	2A	2c	2a
=154	=154	=154	=154
1BB-	2.B-	1d	2g
.	.	.	1f
.	4A	.	.
1C	1G	1c	.
.	.	.	2e
=155	=155	=155	=155
0F	0A	0c	0f
*-	*-	*-	*-
!!!CDT: 1525/^1526/-1594/2/2
!!!OCY: Italia
!!!AGN: Mass (Paraphrase)
!!!AST: renaissance, vocal
!!!ASW: Antiphon
!!!PWK: Masses, Book 11
!!!RNB: Cadence finals: C
!!!YOR: Le Opere Complete, v. 28, p. 148
!!!YOO: Rome, Italy: Fratelli Scalera
!!!END: 1992//
!!!EED: John Miller
!!!YEC: Copyright 2000, John Miller
!!!YEN: United States of America
!!!YEM: Rights to all derivative electronic formats reserved.
!!!YEM: Refer to licensing agreement for further details.
!!!YEM: This file must be accompanied by the licensing agreement.
!!!YEM: A copy of the licensing agreement may be found at http://www.music-cog.ohio-state.edu/HumdrumDatabases/Palestrina/license.txt
!!!EMD: converted to Humdrum by Bret Aarden
